X:19
T:Girl with the Blue Dress On
L:1/8
M:2/2
K:G
P:A
Bc|"G"d2Bd "D"c2Ac|"G"B2G2 GFGB|"D"A2F2 FEFG|"D"A2G2 "G"G2Bc|
"G"d2Bd "D"c2Ac|"G"B2G2 GFGB|"D"A2F2 FEFG|"G"A2G2 G2:|
P:B
|:"G"G2Bd g3f|"C"f2e2 e2z2|"D"D2FA f3e|"G"e2d2 d2z2|
"Em7"G2Bd "D"g3f|"C"f2"G/b"e2 "Am7"e3g|"D"f2a2 "D7"e2f2|g6:|

%%newpage

